X:1
T:Colorado Trail
M:4/4
L:1/4
K:C
 E2 G G| A G E2| D2 C D| E4| E G G A| G E E2| C C A, C| D4| E2 G G|\
 A G E2| D2 C- D| E4| G A c3/2 A/2| G E D3/2 C/2| D C C C| C4|
